X: 20861
P: Rattle the Bottles.
M: 6/8
L: 1/8
K: D
(3(A/B/c/) !segno!|\
d2d cBA | BAG FED | d2d cBA | BAF ABc |\
d2d cBA | BAG F>EF | D/D/D<D D/D/D<D | BAF E2 H:|
e |\
d2(f/g/) a2f | b2g afd | d2(f/g/) afa | cea ecA |\
d2(f/g/) afa | bgb afa | gbf efd | cdB "^D.C."A2 |]
K: Dm
"^Minor." F |\
cdc BcB | ABA G2z | cdc BcB | A=BG A"^D.C. al"B^c !segno!|]


